X:2989
T:Tullan, lullan lullaa
C:anon.
O:Finland
R:Lullaby
Z:Transcribed by Frank Nordberg - http://www.musicaviva.com
F:http://abc.musicaviva.com/tunes/finland/tullan-lullan-lullaa.abc
M:2/4
L:1/8
K:Dm
"Dm"DD AA|"A7"A2E2|"A7"GG GE|"Dm"F2D2|
w:Tul-lan, lul-lan lul-laa ei saa kuk-haan tul-la,
"Dm"FE DF|"A7"EE A,2|"A7"A,A,/A,/ ^CC|"Dm"DDD2|]
w:tul-lan, lul-lan luu-puk-kaa qi-k\"a se lap-si nu-kuk-haan.
W:
W:
W:  From Musica Viva - http://www.musicaviva.com
W:  the Internet center for free sheet music downloads.


